svg/file/clipboard_fill.svg

<?xml version="1.0" encoding="UTF-8"?>
<svg width="24px" height="24px" viewBox="0 0 24 24" version="1.1" xmlns="http://www.w3.org/2000/svg" xmlns:xlink="http://www.w3.org/1999/xlink">
    <title>clipboard_fill</title>
    <g id="页面-1" stroke="none" stroke-width="1" fill="none" fill-rule="evenodd">
        <g id="File" transform="translate(-192.000000, -48.000000)" fill-rule="nonzero">
            <g id="clipboard_fill" transform="translate(192.000000, 48.000000)">
                 <path d="M24,0 L24,24 L0,24 L0,0 L24,0 Z M12.5934901,23.257841 L12.5819402,23.2595131 L12.5108777,23.2950439 L12.4918791,23.2987469 L12.4918791,23.2987469 L12.4767152,23.2950439 L12.4056548,23.2595131 C12.3958229,23.2563662 12.3870493,23.2590235 12.3821421,23.2649074 L12.3780323,23.275831 L12.360941,23.7031097 L12.3658947,23.7234994 L12.3769048,23.7357139 L12.4804777,23.8096931 L12.4953491,23.8136134 L12.4953491,23.8136134 L12.5071152,23.8096931 L12.6106902,23.7357139 L12.6232938,23.7196733 L12.6232938,23.7196733 L12.6266527,23.7031097 L12.609561,23.275831 C12.6075724,23.2657013 12.6010112,23.2592993 12.5934901,23.257841 L12.5934901,23.257841 Z M12.8583906,23.1452862 L12.8445485,23.1473072 L12.6598443,23.2396597 L12.6498822,23.2499052 L12.6498822,23.2499052 L12.6471943,23.2611114 L12.6650943,23.6906389 L12.6699349,23.7034178 L12.6699349,23.7034178 L12.678386,23.7104931 L12.8793402,23.8032389 C12.8914285,23.8068999 12.9022333,23.8029875 12.9078286,23.7952264 L12.9118235,23.7811639 L12.8776777,23.1665331 C12.8752882,23.1545897 12.8674102,23.1470016 12.8583906,23.1452862 L12.8583906,23.1452862 Z M12.1430473,23.1473072 C12.1332178,23.1423925 12.1221763,23.1452606 12.1156365,23.1525954 L12.1099173,23.1665331 L12.0757714,23.7811639 C12.0751323,23.7926639 12.0828099,23.8018602 12.0926481,23.8045676 L12.108256,23.8032389 L12.3092106,23.7104931 L12.3186497,23.7024347 L12.3186497,23.7024347 L12.3225043,23.6906389 L12.340401,23.2611114 L12.337245,23.2485176 L12.337245,23.2485176 L12.3277531,23.2396597 L12.1430473,23.1473072 Z" id="MingCute" fill-rule="nonzero"></path>
                <path d="M7,3 L7,4 C7,5.10457 7.89543,6 9,6 L15,6 C16.1046,6 17,5.10457 17,4 L17,3 L18,3 C19.1046,3 20,3.89543 20,5 L20,16 C20,19.3137 17.3137,22 14,22 L6,22 C4.89543,22 4,21.1046 4,20 L4,5 C4,3.89543 4.89543,3 6,3 L7,3 Z M12,14 L9,14 C8.44772,14 8,14.4477 8,15 C8,15.5523 8.44772,16 9,16 L12,16 C12.5523,16 13,15.5523 13,15 C13,14.4477 12.5523,14 12,14 Z M15,10 L9,10 C8.44772,10 8,10.4477 8,11 C8,11.51285 8.38604429,11.9355092 8.88337975,11.9932725 L9,12 L15,12 C15.5523,12 16,11.5523 16,11 C16,10.4477 15.5523,10 15,10 Z M14,2 C14.5523,2 15,2.44772 15,3 C15,3.51283143 14.613973,3.93550653 14.1166239,3.9932722 L14,4 L10,4 C9.44772,4 9,3.55228 9,3 C9,2.48716857 9.38604429,2.06449347 9.88337975,2.0067278 L10,2 L14,2 Z" id="形状" fill="#09244B"></path>
            </g>
        </g>
    </g>
</svg>

<svg xmlns="http://www.w3.org/2000/svg" width="24" height="24"><g fill="none" fill-rule="nonzero"><path d="M24 0v24H0V0h24ZM12.593 23.258l-.011.002-.071.035-.02.004-.014-.004-.071-.035c-.01-.004-.019-.001-.024.005l-.004.01-.017.428.005.02.01.013.104.074.015.004.012-.004.104-.074.012-.016.004-.017-.017-.427c-.002-.01-.009-.017-.017-.018Zm.265-.113-.013.002-.185.093-.01.01-.003.011.018.43.005.012.008.007.201.093c.012.004.023 0 .029-.008l.004-.014-.034-.614c-.003-.012-.01-.02-.02-.022Zm-.715.002a.023.023 0 0 0-.027.006l-.006.014-.034.614c0 .012.007.02.017.024l.015-.002.201-.093.01-.008.004-.011.017-.43-.003-.012-.01-.01-.184-.092Z"/><path fill="#09244B" d="M7 3v1a2 2 0 0 0 2 2h6a2 2 0 0 0 2-2V3h1a2 2 0 0 1 2 2v11a6 6 0 0 1-6 6H6a2 2 0 0 1-2-2V5a2 2 0 0 1 2-2h1Zm5 11H9a1 1 0 1 0 0 2h3a1 1 0 1 0 0-2Zm3-4H9a1 1 0 0 0-.117 1.993L9 12h6a1 1 0 1 0 0-2Zm-1-8a1 1 0 0 1 .117 1.993L14 4h-4a1 1 0 0 1-.117-1.993L10 2h4Z"/></g></svg>
